public/icons/pallete.svg

<svg xmlns:xlink="http://www.w3.org/1999/xlink" xmlns="http://www.w3.org/2000/svg" viewBox="0 0 28 28" height="28" width="28" preserveAspectRatio="xMidYMid meet" class="x1fpc5dy" fill="none"><title fill="none">palette</title><path fill-rule="evenodd" clip-rule="evenodd" d="M14 3.5C8.20167 3.5 3.5 8.20167 3.5 14C3.5 19.7983 8.20167 24.5 14 24.5C14.9683 24.5 15.75 23.7183 15.75 22.75C15.75 22.295 15.575 21.8867 15.295 21.5717C15.0267 21.2683 14.8517 20.86 14.8517 20.4167C14.8517 19.4483 15.6333 18.6667 16.6017 18.6667H18.6667C21.8867 18.6667 24.5 16.0533 24.5 12.8333C24.5 7.67667 19.7983 3.5 14 3.5ZM7.58333 14C6.615 14 5.83333 13.2183 5.83333 12.25C5.83333 11.2817 6.615 10.5 7.58333 10.5C8.55167 10.5 9.33333 11.2817 9.33333 12.25C9.33333 13.2183 8.55167 14 7.58333 14ZM9.33333 7.58333C9.33333 8.55167 10.115 9.33333 11.0833 9.33333C12.0517 9.33333 12.8333 8.55167 12.8333 7.58333C12.8333 6.615 12.0517 5.83333 11.0833 5.83333C10.115 5.83333 9.33333 6.615 9.33333 7.58333ZM16.9167 9.33333C15.9483 9.33333 15.1667 8.55167 15.1667 7.58333C15.1667 6.615 15.9483 5.83333 16.9167 5.83333C17.885 5.83333 18.6667 6.615 18.6667 7.58333C18.6667 8.55167 17.885 9.33333 16.9167 9.33333ZM18.6667 12.25C18.6667 13.2183 19.4483 14 20.4167 14C21.385 14 22.1667 13.2183 22.1667 12.25C22.1667 11.2817 21.385 10.5 20.4167 10.5C19.4483 10.5 18.6667 11.2817 18.6667 12.25Z" fill="#FFFFFF"></path><path d="M14 3.16667C8.01757 3.16667 3.16667 8.01757 3.16667 14C3.16667 19.9824 8.01757 24.8333 14 24.8333C15.1524 24.8333 16.0833 23.9024 16.0833 22.75C16.0833 22.2065 15.8737 21.7209 15.5441 21.3502L15.295 21.5717L15.5447 21.3508C15.3256 21.1031 15.185 20.7719 15.185 20.4167C15.185 19.6324 15.8174 19 16.6017 19H18.6667C22.0708 19 24.8333 16.2374 24.8333 12.8333C24.8333 7.45669 19.9444 3.16667 14 3.16667ZM7.58333 13.6667C6.79909 13.6667 6.16667 13.0342 6.16667 12.25C6.16667 11.4658 6.79909 10.8333 7.58333 10.8333C8.36757 10.8333 9 11.4658 9 12.25C9 13.0342 8.36757 13.6667 7.58333 13.6667ZM11.0833 9C10.2991 9 9.66667 8.36757 9.66667 7.58333C9.66667 6.79909 10.2991 6.16667 11.0833 6.16667C11.8676 6.16667 12.5 6.79909 12.5 7.58333C12.5 8.36757 11.8676 9 11.0833 9ZM16.9167 9C16.1324 9 15.5 8.36757 15.5 7.58333C15.5 6.79909 16.1324 6.16667 16.9167 6.16667C17.7009 6.16667 18.3333 6.79909 18.3333 7.58333C18.3333 8.36757 17.7009 9 16.9167 9ZM20.4167 13.6667C19.6324 13.6667 19 13.0342 19 12.25C19 11.4658 19.6324 10.8333 20.4167 10.8333C21.2009 10.8333 21.8333 11.4658 21.8333 12.25C21.8333 13.0342 21.2009 13.6667 20.4167 13.6667Z" fill="none"></path></svg>

<svg xmlns="http://www.w3.org/2000/svg" height="28" width="28" preserveAspectRatio="xMidYMid meet" fill="none" xmlns:v="https://vecta.io/nano"><path fill-rule="evenodd" d="M14 3.5C8.202 3.5 3.5 8.202 3.5 14S8.202 24.5 14 24.5a1.75 1.75 0 0 0 1.75-1.75c0-.455-.175-.863-.455-1.178-.268-.303-.443-.712-.443-1.155a1.75 1.75 0 0 1 1.75-1.75h2.065c3.22 0 5.833-2.613 5.833-5.833C24.5 7.677 19.798 3.5 14 3.5zM7.583 14a1.75 1.75 0 1 1 0-3.5 1.75 1.75 0 1 1 0 3.5zm1.75-6.417a1.75 1.75 0 0 0 3.5 0 1.75 1.75 0 0 0-3.5 0zm7.583 1.75a1.75 1.75 0 1 1 0-3.5 1.75 1.75 0 1 1 0 3.5zm1.75 2.917a1.75 1.75 0 1 0 3.5 0 1.75 1.75 0 1 0-3.5 0z" fill="#fff"/></svg>
